fork{
"1".postln;
(0.1).wait;
"2".postln;
(0.1).wait;
"3".postln;
(0.1).wait;
"4".postln;
(0.1).wait;
"5".postln;
(0.1).wait;
"6".postln;
(0.1).wait;
"7".postln;
(0.1).wait;
"8".postln;
(0.1).wait;
"9".postln;
(0.1).wait;
"10".postln;
(0.1).wait;
"11".postln;
(0.1).wait;
"12".postln;
(0.1).wait;
"13".postln;
(0.1).wait;
"14".postln;
(0.1).wait;
"15".postln;
(0.1).wait;
"16".postln;
(0.1).wait;
"17".postln;
(0.1).wait;
"18".postln;
(0.1).wait;
"19".postln;
(0.1).wait;
"20".postln;
(0.1).wait;
"21".postln;
(0.1).wait;
"22".postln;
(0.1).wait;
"23".postln;
(0.1).wait;
"24".postln;
(0.1).wait;
"25".postln;
(0.1).wait;
"26".postln;
(0.1).wait;
"27".postln;
(0.1).wait;
"28".postln;
(0.1).wait;
"29".postln;
(0.1).wait;
"30".postln;
(0.1).wait;
"31".postln;
(0.1).wait;
"32".postln;
(0.1).wait;
"33".postln;
(0.1).wait;
"34".postln;
(0.1).wait;
"35".postln;
(0.1).wait;
"36".postln;
(0.1).wait;
"37".postln;
(0.1).wait;
"38".postln;
(0.1).wait;
"39".postln;
(0.1).wait;
"40".postln;
(0.1).wait;
"41".postln;
(0.1).wait;
"42".postln;
(0.1).wait;
"43".postln;
(0.1).wait;
"44".postln;
(0.1).wait;
"45".postln;
(0.1).wait;
"46".postln;
(0.1).wait;
"47".postln;
(0.1).wait;
"48".postln;
(0.1).wait;
"49".postln;
(0.1).wait;
"50".postln;
(0.1).wait;
"51".postln;
(0.1).wait;
"52".postln;
(0.1).wait;
"53".postln;
(0.1).wait;
"54".postln;
(0.1).wait;
"55".postln;
(0.1).wait;
"56".postln;
(0.1).wait;
"57".postln;
(0.1).wait;
"58".postln;
(0.1).wait;
"59".postln;
(0.1).wait;
"60".postln;
(0.1).wait;
"61".postln;
(0.1).wait;
"62".postln;
(0.1).wait;
"63".postln;
(0.1).wait;
"64".postln;
(0.1).wait;
"65".postln;
(0.1).wait;
"66".postln;
(0.1).wait;
"67".postln;
(0.1).wait;
"68".postln;
(0.1).wait;
"69".postln;
(0.1).wait;
"70".postln;
(0.1).wait;
"71".postln;
(0.1).wait;
"72".postln;
(0.1).wait;
"73".postln;
(0.1).wait;
"74".postln;
(0.1).wait;
"75".postln;
(0.1).wait;
"76".postln;
(0.1).wait;
"77".postln;
(0.1).wait;
"78".postln;
(0.1).wait;
"79".postln;
(0.1).wait;
"80".postln;
(0.1).wait;
"81".postln;
(0.1).wait;
"82".postln;
(0.1).wait;
"83".postln;
(0.1).wait;
"84".postln;
(0.1).wait;
"85".postln;
(0.1).wait;
"86".postln;
(0.1).wait;
"87".postln;
(0.1).wait;
"88".postln;
(0.1).wait;
"89".postln;
(0.1).wait;
"90".postln;
(0.1).wait;
"91".postln;
(0.1).wait;
"92".postln;
(0.1).wait;
"93".postln;
(0.1).wait;
"94".postln;
(0.1).wait;
"95".postln;
(0.1).wait;
"96".postln;
(0.1).wait;
"97".postln;
(0.1).wait;
"98".postln;
(0.1).wait;
"99".postln;
(0.1).wait;
"100".postln;
(0.1).wait;
"101".postln;
(0.1).wait;
"102".postln;
(0.1).wait;
"103".postln;
(0.1).wait;
"104".postln;
(0.1).wait;
"105".postln;
(0.1).wait;
"106".postln;
(0.1).wait;
"107".postln;
(0.1).wait;
"108".postln;
(0.1).wait;
"109".postln;
(0.1).wait;
"110".postln;
(0.1).wait;
"111".postln;
(0.1).wait;
"112".postln;
(0.1).wait;
"113".postln;
(0.1).wait;
"114".postln;
(0.1).wait;
"115".postln;
(0.1).wait;
"116".postln;
(0.1).wait;
"117".postln;
(0.1).wait;
"118".postln;
(0.1).wait;
"119".postln;
(0.1).wait;
"120".postln;
(0.1).wait;
"121".postln;
(0.1).wait;
"122".postln;
(0.1).wait;
"123".postln;
(0.1).wait;
"124".postln;
(0.1).wait;
"125".postln;
(0.1).wait;
"126".postln;
(0.1).wait;
"127".postln;
(0.1).wait;
"128".postln;
(0.1).wait;
"129".postln;
(0.1).wait;
"130".postln;
(0.1).wait;
"131".postln;
(0.1).wait;
"132".postln;
(0.1).wait;
"133".postln;
(0.1).wait;
"134".postln;
(0.1).wait;
"135".postln;
(0.1).wait;
"136".postln;
(0.1).wait;
"137".postln;
(0.1).wait;
"138".postln;
(0.1).wait;
"139".postln;
(0.1).wait;
"140".postln;
(0.1).wait;
"141".postln;
(0.1).wait;
"142".postln;
(0.1).wait;
"143".postln;
(0.1).wait;
"144".postln;
(0.1).wait;
"145".postln;
(0.1).wait;
"146".postln;
(0.1).wait;
"147".postln;
(0.1).wait;
"148".postln;
(0.1).wait;
"149".postln;
(0.1).wait;
"150".postln;
(0.1).wait;
"151".postln;
(0.1).wait;
"152".postln;
(0.1).wait;
"153".postln;
(0.1).wait;
"154".postln;
(0.1).wait;
"155".postln;
(0.1).wait;
"156".postln;
(0.1).wait;
"157".postln;
(0.1).wait;
"158".postln;
(0.1).wait;
"159".postln;
(0.1).wait;
"160".postln;
(0.1).wait;
"161".postln;
(0.1).wait;
"162".postln;
(0.1).wait;
"163".postln;
(0.1).wait;
"164".postln;
(0.1).wait;
"165".postln;
(0.1).wait;
"166".postln;
(0.1).wait;
"167".postln;
(0.1).wait;
"168".postln;
(0.1).wait;
"169".postln;
(0.1).wait;
"170".postln;
(0.1).wait;
"171".postln;
(0.1).wait;
"172".postln;
(0.1).wait;
"173".postln;
(0.1).wait;
"174".postln;
(0.1).wait;
"175".postln;
(0.1).wait;
"176".postln;
(0.1).wait;
"177".postln;
(0.1).wait;
"178".postln;
(0.1).wait;
"179".postln;
(0.1).wait;
"180".postln;
(0.1).wait;
"181".postln;
(0.1).wait;
"182".postln;
(0.1).wait;
"183".postln;
(0.1).wait;
"184".postln;
(0.1).wait;
"185".postln;
(0.1).wait;
"186".postln;
(0.1).wait;
"187".postln;
(0.1).wait;
"188".postln;
(0.1).wait;
"189".postln;
(0.1).wait;
"190".postln;
(0.1).wait;
"191".postln;
(0.1).wait;
"192".postln;
(0.1).wait;
"193".postln;
(0.1).wait;
"194".postln;
(0.1).wait;
"195".postln;
(0.1).wait;
"196".postln;
(0.1).wait;
"197".postln;
(0.1).wait;
"198".postln;
(0.1).wait;
"199".postln;
(0.1).wait;
"200".postln;
(0.1).wait;
"201".postln;
(0.1).wait;
"202".postln;
(0.1).wait;
"203".postln;
(0.1).wait;
"204".postln;
(0.1).wait;
"205".postln;
(0.1).wait;
"206".postln;
(0.1).wait;
"207".postln;
(0.1).wait;
"208".postln;
(0.1).wait;
"209".postln;
(0.1).wait;
"210".postln;
(0.1).wait;
"211".postln;
(0.1).wait;
"212".postln;
(0.1).wait;
"213".postln;
(0.1).wait;
"214".postln;
(0.1).wait;
"215".postln;
(0.1).wait;
"216".postln;
(0.1).wait;
"217".postln;
(0.1).wait;
"218".postln;
(0.1).wait;
"219".postln;
(0.1).wait;
"220".postln;
(0.1).wait;
"221".postln;
(0.1).wait;
"222".postln;
(0.1).wait;
"223".postln;
(0.1).wait;
"224".postln;
(0.1).wait;
"225".postln;
(0.1).wait;
"226".postln;
(0.1).wait;
"227".postln;
(0.1).wait;
"228".postln;
(0.1).wait;
"229".postln;
(0.1).wait;
"230".postln;
(0.1).wait;
"231".postln;
(0.1).wait;
"232".postln;
(0.1).wait;
"233".postln;
(0.1).wait;
"234".postln;
(0.1).wait;
"235".postln;
(0.1).wait;
"236".postln;
(0.1).wait;
"237".postln;
(0.1).wait;
"238".postln;
(0.1).wait;
"239".postln;
(0.1).wait;
"240".postln;
(0.1).wait;
"241".postln;
(0.1).wait;
"242".postln;
(0.1).wait;
"243".postln;
(0.1).wait;
"244".postln;
(0.1).wait;
"245".postln;
(0.1).wait;
"246".postln;
(0.1).wait;
"247".postln;
(0.1).wait;
"248".postln;
(0.1).wait;
"249".postln;
(0.1).wait;
"250".postln;
}