fork{
"things".postln;(0.1).wait;
"things".postln;(0.1).wait;
"things".postln;(0.1).wait;
"things".postln;(0.1).wait;
"things".postln;(0.1).wait;
"things".postln;(0.1).wait;
"things".postln;(0.1).wait;
"things".postln;(0.1).wait;
"things".postln;(0.1).wait;
"things".postln;(0.1).wait;
"things".postln;(0.1).wait;
"things".postln;(0.1).wait;
"things".postln;(0.1).wait;
"things".postln;(0.1).wait;
"things".postln;(0.1).wait;
"things".postln;(0.1).wait;
"things".postln;(0.1).wait;
"things".postln;(0.1).wait;
"things".postln;(0.1).wait;
"things".postln;(0.1).wait;
"things".postln;(0.1).wait;
"things".postln;(0.1).wait;
"things".postln;(0.1).wait;
"things".postln;(0.1).wait;
"things".postln;(0.1).wait;
"things".postln;(0.1).wait;
"things".postln;(0.1).wait;
"things".postln;(0.1).wait;
"things".postln;(0.1).wait;
"things".postln;(0.1).wait;
"things".postln;(0.1).wait;
"things".postln;(0.1).wait;
"things".postln;(0.1).wait;
"things".postln;(0.1).wait;
"things".postln;(0.1).wait;
"things".postln;(0.1).wait;
"things".postln;(0.1).wait;
"things".postln;(0.1).wait;
"things".postln;(0.1).wait;
"things".postln;(0.1).wait;
"things".postln;(0.1).wait;
"things".postln;(0.1).wait;
"things".postln;(0.1).wait;
"things".postln;(0.1).wait;
"things".postln;(0.1).wait;
"things".postln;(0.1).wait;
"things".postln;(0.1).wait;
"things".postln;(0.1).wait;
"things".postln;(0.1).wait;
"things".postln;(0.1).wait;
"things".postln;(0.1).wait;
"things".postln;(0.1).wait;
"things".postln;(0.1).wait;
"things".postln;(0.1).wait;
"things".postln;(0.1).wait;
"things".postln;(0.1).wait;
"things".postln;(0.1).wait;
"things".postln;(0.1).wait;
"things".postln;(0.1).wait;
"things".postln;(0.1).wait;
"things".postln;(0.1).wait;
"things".postln;(0.1).wait;
"things".postln;(0.1).wait;
"things".postln;(0.1).wait;
"things".postln;(0.1).wait;
"things".postln;(0.1).wait;
"things".postln;(0.1).wait;
"things".postln;(0.1).wait;
"things".postln;(0.1).wait;
"things".postln;(0.1).wait;
"things".postln;(0.1).wait;
"things".postln;(0.1).wait;
"things".postln;(0.1).wait;
"things".postln;(0.1).wait;
"things".postln;(0.1).wait;
"things".postln;(0.1).wait;
"things".postln;(0.1).wait;
"things".postln;(0.1).wait;
"things".postln;(0.1).wait;
"things".postln;(0.1).wait;
"things".postln;(0.1).wait;
"things".postln;(0.1).wait;
"things".postln;(0.1).wait;
"things".postln;(0.1).wait;
"things".postln;(0.1).wait;
"things".postln;(0.1).wait;
"things".postln;(0.1).wait;
"things".postln;(0.1).wait;
"things".postln;(0.1).wait;
"things".postln;(0.1).wait;
"things".postln;(0.1).wait;
"things".postln;(0.1).wait;
"things".postln;(0.1).wait;
"things".postln;(0.1).wait;
"things".postln;(0.1).wait;
"things".postln;(0.1).wait;
"things".postln;(0.1).wait;
"things".postln;(0.1).wait;
"things".postln;(0.1).wait;
"things".postln;(0.1).wait;
"things".postln;(0.1).wait;
"things".postln;(0.1).wait;
"things".postln;(0.1).wait;
"things".postln;(0.1).wait;
"things".postln;(0.1).wait;
"things".postln;(0.1).wait;
"things".postln;(0.1).wait;
"things".postln;(0.1).wait;
"things".postln;(0.1).wait;
"things".postln;(0.1).wait;
"things".postln;(0.1).wait;
"things".postln;(0.1).wait;
"things".postln;(0.1).wait;
"things".postln;(0.1).wait;
"things".postln;(0.1).wait;
"things".postln;(0.1).wait;
"things".postln;(0.1).wait;
"things".postln;(0.1).wait;
"things".postln;(0.1).wait;
"things".postln;(0.1).wait;
"things".postln;(0.1).wait;
"things".postln;(0.1).wait;
"things".postln;(0.1).wait;
"things".postln;(0.1).wait;
"things".postln;(0.1).wait;
"things".postln;(0.1).wait;
"things".postln;(0.1).wait;
"things".postln;(0.1).wait;
"things".postln;(0.1).wait;
"things".postln;(0.1).wait;
"things".postln;(0.1).wait;
"things".postln;(0.1).wait;
"things".postln;(0.1).wait;
"things".postln;(0.1).wait;
"things".postln;(0.1).wait;
"things".postln;(0.1).wait;
"things".postln;(0.1).wait;
"things".postln;(0.1).wait;
"things".postln;(0.1).wait;
"things".postln;(0.1).wait;
"things".postln;(0.1).wait;
"things".postln;(0.1).wait;
"things".postln;(0.1).wait;
"things".postln;(0.1).wait;
"things".postln;(0.1).wait;
"things".postln;(0.1).wait;
"things".postln;(0.1).wait;
"things".postln;(0.1).wait;
"things".postln;(0.1).wait;
"things".postln;(0.1).wait;
"things".postln;(0.1).wait;
"things".postln;(0.1).wait;
"things".postln;(0.1).wait;
"things".postln;(0.1).wait;
"things".postln;(0.1).wait;
"things".postln;(0.1).wait;
"things".postln;(0.1).wait;
"things".postln;(0.1).wait;
"things".postln;(0.1).wait;
"things".postln;(0.1).wait;
"things".postln;(0.1).wait;
"things".postln;(0.1).wait;
"things".postln;(0.1).wait;
"things".postln;(0.1).wait;
"things".postln;(0.1).wait;
"things".postln;(0.1).wait;
"things".postln;(0.1).wait;
"things".postln;(0.1).wait;
"things".postln;(0.1).wait;
"things".postln;(0.1).wait;
"things".postln;(0.1).wait;
"things".postln;(0.1).wait;
"things".postln;(0.1).wait;
"things".postln;(0.1).wait;
"things".postln;(0.1).wait;
"things".postln;(0.1).wait;
"things".postln;(0.1).wait;
"things".postln;(0.1).wait;
"things".postln;(0.1).wait;
"things".postln;(0.1).wait;
"things".postln;(0.1).wait;
"things".postln;(0.1).wait;
"things".postln;(0.1).wait;
"things".postln;(0.1).wait;
"things".postln;(0.1).wait;
"things".postln;(0.1).wait;
"things".postln;(0.1).wait;
"things".postln;(0.1).wait;
"things".postln;(0.1).wait;
"things".postln;(0.1).wait;
"things".postln;(0.1).wait;
"things".postln;(0.1).wait;
"things".postln;(0.1).wait;
"things".postln;(0.1).wait;
"things".postln;(0.1).wait;
"things".postln;(0.1).wait;
"things".postln;(0.1).wait;
"things".postln;(0.1).wait;
"things".postln;(0.1).wait;
"things".postln;(0.1).wait;
"things".postln;(0.1).wait;
"things".postln;(0.1).wait;
"things".postln;(0.1).wait;
"things".postln;(0.1).wait;
"things".postln;(0.1).wait;
"things".postln;(0.1).wait;
"things".postln;(0.1).wait;
"things".postln;(0.1).wait;
"things".postln;(0.1).wait;
"things".postln;(0.1).wait;
"things".postln;(0.1).wait;
"things".postln;(0.1).wait;
"things".postln;(0.1).wait;
"things".postln;(0.1).wait;
"things".postln;(0.1).wait;
"things".postln;(0.1).wait;
"things".postln;(0.1).wait;
"things".postln;(0.1).wait;
"things".postln;(0.1).wait;
"things".postln;(0.1).wait;
"things".postln;(0.1).wait;
"things".postln;(0.1).wait;
"things".postln;(0.1).wait;
"things".postln;(0.1).wait;
"things".postln;(0.1).wait;
"things".postln;(0.1).wait;
"things".postln;(0.1).wait;
"things".postln;(0.1).wait;
"things".postln;(0.1).wait;
"things".postln;(0.1).wait;
"things".postln;(0.1).wait;
"things".postln;(0.1).wait;
"things".postln;(0.1).wait;
"things".postln;(0.1).wait;
"things".postln;(0.1).wait;
"things".postln;(0.1).wait;
"things".postln;(0.1).wait;
"things".postln;(0.1).wait;
"things".postln;(0.1).wait;
"things".postln;(0.1).wait;
"things".postln;(0.1).wait;
"things".postln;(0.1).wait;
"things".postln;(0.1).wait;
"things".postln;(0.1).wait;
"things".postln;(0.1).wait;
"things".postln;(0.1).wait;
"things".postln;(0.1).wait;
"things".postln;(0.1).wait;
"things".postln;(0.1).wait;
"things".postln;(0.1).wait;
"things".postln;(0.1).wait;
"things".postln;(0.1).wait;
"things".postln;(0.1).wait;
"things".postln;(0.1).wait;
"things".postln;(0.1).wait;
"things".postln;(0.1).wait;
"things".postln;(0.1).wait;
"things".postln;(0.1).wait;
"things".postln;(0.1).wait;
"things".postln;(0.1).wait;
"things".postln;(0.1).wait;
"things".postln;(0.1).wait;
"things".postln;(0.1).wait;
"things".postln;(0.1).wait;
"things".postln;(0.1).wait;
"things".postln;(0.1).wait;
"things".postln;(0.1).wait;
"things".postln;(0.1).wait;
"things".postln;(0.1).wait;
"things".postln;(0.1).wait;
"things".postln;(0.1).wait;
"things".postln;(0.1).wait;
"things".postln;(0.1).wait;
"things".postln;(0.1).wait;
"things".postln;(0.1).wait;
"things".postln;(0.1).wait;
"things".postln;(0.1).wait;
"things".postln;(0.1).wait;
"things".postln;(0.1).wait;
"things".postln;(0.1).wait;
"things".postln;(0.1).wait;
"things".postln;(0.1).wait;
"things".postln;(0.1).wait;
"things".postln;(0.1).wait;
"things".postln;(0.1).wait;
"things".postln;(0.1).wait;
"things".postln;(0.1).wait;
"things".postln;(0.1).wait;
"things".postln;(0.1).wait;
"things".postln;(0.1).wait;
"things".postln;(0.1).wait;
"things".postln;(0.1).wait;
"things".postln;(0.1).wait;
"things".postln;(0.1).wait;
"things".postln;(0.1).wait;
"things".postln;(0.1).wait;
"things".postln;(0.1).wait;
"things".postln;(0.1).wait;
"things".postln;(0.1).wait;
"things".postln;(0.1).wait;
"things".postln;(0.1).wait;
"things".postln;(0.1).wait;
"things".postln;(0.1).wait;
"things".postln;(0.1).wait;
"things".postln;(0.1).wait;
"things".postln;(0.1).wait;
"things".postln;(0.1).wait;
"things".postln;(0.1).wait;
"things".postln;(0.1).wait;
"things".postln;(0.1).wait;
"things".postln;(0.1).wait;
"things".postln;(0.1).wait;
"things".postln;(0.1).wait;
"things".postln;(0.1).wait;
"things".postln;(0.1).wait;
"things".postln;(0.1).wait;
"things".postln;(0.1).wait;
"things".postln;(0.1).wait;
"things".postln;(0.1).wait;
"things".postln;(0.1).wait;
"things".postln;(0.1).wait;
"things".postln;(0.1).wait;
"things".postln;(0.1).wait;
"things".postln;(0.1).wait;
"things".postln;(0.1).wait;
"things".postln;(0.1).wait;
"things".postln;(0.1).wait;
"things".postln;(0.1).wait;
"things".postln;(0.1).wait;
"things".postln;(0.1).wait;
"things".postln;(0.1).wait;
"things".postln;(0.1).wait;
"things".postln;(0.1).wait;
"things".postln;(0.1).wait;
"things".postln;(0.1).wait;
"things".postln;(0.1).wait;
"things".postln;(0.1).wait;
"things".postln;(0.1).wait;
"things".postln;(0.1).wait;
"things".postln;(0.1).wait;
"things".postln;(0.1).wait;
"things".postln;(0.1).wait;
"things".postln;(0.1).wait;
"things".postln;(0.1).wait;
"things".postln;(0.1).wait;
"things".postln;(0.1).wait;
"things".postln;(0.1).wait;
"things".postln;(0.1).wait;
"things".postln;(0.1).wait;
"things".postln;(0.1).wait;
"things".postln;(0.1).wait;
"things".postln;(0.1).wait;
"things".postln;(0.1).wait;
"things".postln;(0.1).wait;
"things".postln;(0.1).wait;
"things".postln;(0.1).wait;
"things".postln;(0.1).wait;
"things".postln;(0.1).wait;
"things".postln;(0.1).wait;
"things".postln;(0.1).wait;
"things".postln;(0.1).wait;
"things".postln;(0.1).wait;
"things".postln;(0.1).wait;
"things".postln;(0.1).wait;
"things".postln;(0.1).wait;
"things".postln;(0.1).wait;
"things".postln;(0.1).wait;
"things".postln;(0.1).wait;
"things".postln;(0.1).wait;
"things".postln;(0.1).wait;
"things".postln;(0.1).wait;
"things".postln;(0.1).wait;
"things".postln;(0.1).wait;
"things".postln;(0.1).wait;
"things".postln;(0.1).wait;
"things".postln;(0.1).wait;
"things".postln;(0.1).wait;
"things".postln;(0.1).wait;
"things".postln;(0.1).wait;
"things".postln;(0.1).wait;
"things".postln;(0.1).wait;
"things".postln;(0.1).wait;
"things".postln;(0.1).wait;
"things".postln;(0.1).wait;
"things".postln;(0.1).wait;
"things".postln;(0.1).wait;
"things".postln;(0.1).wait;
"things".postln;(0.1).wait;
"things".postln;(0.1).wait;
"things".postln;(0.1).wait;
"things".postln;(0.1).wait;
"things".postln;(0.1).wait;
"things".postln;(0.1).wait;
"things".postln;(0.1).wait;
"things".postln;(0.1).wait;
"things".postln;(0.1).wait;
"things".postln;(0.1).wait;
"things".postln;(0.1).wait;
"things".postln;(0.1).wait;
"things".postln;(0.1).wait;
"things".postln;(0.1).wait;
"things".postln;(0.1).wait;
"things".postln;(0.1).wait;
"things".postln;(0.1).wait;
"things".postln;(0.1).wait;
"things".postln;(0.1).wait;
"things".postln;(0.1).wait;
"things".postln;(0.1).wait;
"things".postln;(0.1).wait;
"things".postln;(0.1).wait;
"things".postln;(0.1).wait;
"things".postln;(0.1).wait;
"things".postln;(0.1).wait;
"things".postln;(0.1).wait;
"things".postln;(0.1).wait;
"things".postln;(0.1).wait;
"things".postln;(0.1).wait;
"things".postln;(0.1).wait;
"things".postln;(0.1).wait;
"things".postln;(0.1).wait;
"things".postln;(0.1).wait;
"things".postln;(0.1).wait;
"things".postln;(0.1).wait;
"things".postln;(0.1).wait;
"things".postln;(0.1).wait;
"things".postln;(0.1).wait;
"things".postln;(0.1).wait;
"things".postln;(0.1).wait;
"things".postln;(0.1).wait;
"things".postln;(0.1).wait;
"things".postln;(0.1).wait;
"things".postln;(0.1).wait;
"things".postln;(0.1).wait;
"things".postln;(0.1).wait;
"things".postln;(0.1).wait;
"things".postln;(0.1).wait;
"things".postln;(0.1).wait;
"things".postln;(0.1).wait;
"things".postln;(0.1).wait;
"things".postln;(0.1).wait;
"things".postln;(0.1).wait;
"things".postln;(0.1).wait;
"things".postln;(0.1).wait;
"things".postln;(0.1).wait;
"things".postln;(0.1).wait;
"things".postln;(0.1).wait;
"things".postln;(0.1).wait;
"things".postln;(0.1).wait;
"things".postln;(0.1).wait;
"things".postln;(0.1).wait;
"things".postln;(0.1).wait;
"things".postln;(0.1).wait;
"things".postln;(0.1).wait;
"things".postln;(0.1).wait;
"things".postln;(0.1).wait;
"things".postln;(0.1).wait;
"things".postln;(0.1).wait;
"things".postln;(0.1).wait;
"things".postln;(0.1).wait;
"things".postln;(0.1).wait;
"things".postln;(0.1).wait;
"things".postln;(0.1).wait;
"things".postln;(0.1).wait;
"things".postln;(0.1).wait;
"things".postln;(0.1).wait;
"things".postln;(0.1).wait;
"things".postln;(0.1).wait;
"things".postln;(0.1).wait;
"things".postln;(0.1).wait;
"things".postln;(0.1).wait;
"things".postln;(0.1).wait;
"things".postln;(0.1).wait;
"things".postln;(0.1).wait;
"things".postln;(0.1).wait;
"things".postln;(0.1).wait;
"things".postln;(0.1).wait;
"things".postln;(0.1).wait;
"things".postln;(0.1).wait;
"things".postln;(0.1).wait;
"things".postln;(0.1).wait;
"things".postln;(0.1).wait;
"things".postln;(0.1).wait;
"things".postln;(0.1).wait;
"things".postln;(0.1).wait;
"things".postln;(0.1).wait;
"things".postln;(0.1).wait;
"things".postln;(0.1).wait;
"things".postln;(0.1).wait;
"things".postln;(0.1).wait;
"things".postln;(0.1).wait;
"things".postln;(0.1).wait;
"things".postln;(0.1).wait;
"things".postln;(0.1).wait;
"things".postln;(0.1).wait;
"things".postln;(0.1).wait;
"things".postln;(0.1).wait;
"things".postln;(0.1).wait;
"things".postln;(0.1).wait;
"things".postln;(0.1).wait;
"things".postln;(0.1).wait;
"done".postln;
};